X:6
T:We love the earth Woman's love the birth
M:4/4
L:1/8
Q:1/4=114
K:C
|: C2 EG c2 ec | G2 Bd g2 bg | A2 ce a2 ca | F2 Ac f2 af :|
| c'g e g c' g e g | b g d g b g d g | a e c e a e c e | f c A c f c A c |
